bootstrap/door-open.svg

<svg xmlns="http://www.w3.org/2000/svg" width="16" height="16" fill="currentColor" class="bi bi-door-open" viewBox="0 0 16 16">
  <path d="M8.5 10c-.276 0-.5-.448-.5-1s.224-1 .5-1 .5.448.5 1-.224 1-.5 1"/>
  <path d="M10.828.122A.5.5 0 0 1 11 .5V1h.5A1.5 1.5 0 0 1 13 2.5V15h1.5a.5.5 0 0 1 0 1h-13a.5.5 0 0 1 0-1H3V1.5a.5.5 0 0 1 .43-.495l7-1a.5.5 0 0 1 .398.117M11.5 2H11v13h1V2.5a.5.5 0 0 0-.5-.5M4 1.934V15h6V1.077z"/>
</svg>

<svg viewBox="0 0 16 16" xmlns="http://www.w3.org/2000/svg"><g><path d="M8.5 10c-.28 0-.5-.45-.5-1 0-.56.22-1 .5-1 .27 0 .5.44.5 1 0 .55-.23 1-.5 1Z"/><path d="M10.828.12v0c.1.09.17.23.17.37v.5h.5v0c.82 0 1.5.67 1.5 1.5v12.5h1.5v0c.27 0 .5.22.5.5 0 .27-.23.5-.5.5h-13v0c-.28 0-.5-.23-.5-.5 0-.28.22-.5.5-.5h1.5V1.49v0c0-.25.18-.47.43-.5l7-1V-.02c.14-.03.28.02.39.11Zm.67 1.87h-.5v13h1V2.49v0c0-.28-.23-.5-.5-.5Zm-7.5-.07v13.06h6V1.05l-6 .85Z"/></g></svg>
